**harmony	**harte	**kern	**silbe	**rhyme	**timestamp	**phrase
*M4/4	*M4/4	*ICvox	*	*	*	*
*	*	*VRlead	*	*	*	*
*	*	*Hstimme	*	*	*	*
*e-:	*e-:	*e-:	*	*	*	*
*	*	*M4/4	*	*	*	*
*	*	*clefF4	*	*	*	*
1r;	1r	r;	.	.	0	.
=1	=1	=1	=1	=1	=1	=1
*>Letter>A	*>Letter>A	*>Letter>A	*>Letter>A	*>Letter>A	*>Letter>A	*>Letter>A
*>Label>Intro	*>Label>Intro	*>Label>Intro	*>Label>Intro	*>Label>Intro	*>Label>Intro	*>Label>Intro
1E-mm	E-:min7	1r	.	.	0.464	newline
=2	=2	=2	=2	=2	=2	=2
1E-mm	E-:min7	1r	.	.	2.427	.
=3	=3	=3	=3	=3	=3	=3
1E-mm	E-:min7	1r	.	.	4.39	.
=4	=4	=4	=4	=4	=4	=4
1E-mm	E-:min7	1r	.	.	6.352	.
=5	=5	=5	=5	=5	=5	=5
1E-mm	E-:min7	1r	.	.	8.315	newline
=6	=6	=6	=6	=6	=6	=6
1E-mm	E-:min7	1r	.	.	10.297	.
=7	=7	=7	=7	=7	=7	=7
1E-mm	E-:min7	1r	.	.	12.28	.
=8	=8	=8	=8	=8	=8	=8
1E-mm	E-:min7	1r	.	.	14.262	.
=9	=9	=9	=9	=9	=9	=9
*>Letter>B	*>Letter>B	*>Letter>B	*>Letter>B	*>Letter>B	*>Letter>B	*>Letter>B
*>Label>Verse	*>Label>Verse	*>Label>Verse	*>Label>Verse	*>Label>Verse	*>Label>Verse	*>Label>Verse
1E-mm	E-:min7	2.r	.	.	16.244	newline
.	.	8E-	Let	.	.	.
.	.	8E-	me	.	.	.
=10	=10	=10	=10	=10	=10	=10
1E-mm	E-:min7	8G-	take	.	18.2	.
.	.	8G-	you	.	.	.
.	.	8G-	on	.	.	.
.	.	8G-	a	.	.	.
.	.	4E-	trip`	.	.	.
.	.	4r	.	.	.	.
=11	=11	=11	=11	=11	=11	=11
1E-mm	E-:min7	2r	.	.	20.156	.
.	.	8r	.	.	.	.
.	.	8E-	a-	.	.	.
.	.	8E-	-round	.	.	.
.	.	8E-	the	.	.	.
=12	=12	=12	=12	=12	=12	=12
1E-mm	E-:min7	4G-	world	.	22.112	.
.	.	4G-	and	.	.	.
.	.	4E-	back;	.	.	.
.	.	4r	.	.	.	.
=13	=13	=13	=13	=13	=13	=13
1E-mm	E-:min7	2r	.	.	24.068	newline
.	.	8r	.	.	.	.
.	.	8E-	and	.	.	.
.	.	8E-	you	.	.	.
.	.	[8G-	won't	.	.	.
=14	=14	=14	=14	=14	=14	=14
1E-mm	E-:min7	8G-]	_	.	26.039	.
.	.	4G-	have	.	.	.
.	.	8G-	to	.	.	.
.	.	8E-	move.	.	.	.
.	.	8E-	you	.	.	.
.	.	8E-	just	.	.	.
.	.	[8G-	sit	.	.	.
=15	=15	=15	=15	=15	=15	=15
1E-mm	E-:min7	8G-]	_	.	28.011	.
.	.	4.E-	still.	.	.	.
.	.	2r	.	.	.	.
=16	=16	=16	=16	=16	=16	=16
1E-mm	E-:min7	1r	.	.	29.982	.
=17	=17	=17	=17	=17	=17	=17
1E-mm	E-:min7	2r	.	.	31.954	newline
.	.	8r	.	.	.	.
.	.	8E-	Now	.	.	.
.	.	8E-	let	.	.	.
.	.	8E-	your	.	.	.
=18	=18	=18	=18	=18	=18	=18
1E-mm	E-:min7	4G-	mind	.	33.917	.
.	.	8G-	do	.	.	.
.	.	8G-	the	.	.	.
.	.	4E-	walk-	(A	.	.
.	.	4G-	-ing;	a)	.	.
=19	=19	=19	=19	=19	=19	=19
1A-mm	A-:min7	2r	.	.	35.88	.
.	.	8r	.	.	.	.
.	.	8E-	And	.	.	.
.	.	8E-	let	.	.	.
.	.	8E-	my	.	.	.
=20	=20	=20	=20	=20	=20	=20
1A-mm	A-:min7	8G-	bo-	.	37.844	.
.	.	8G-	-dy	.	.	.
.	.	8G-	do	.	.	.
.	.	8G-	the	.	.	.
.	.	4D-	talk-	(A	.	.
.	.	[4E-	-ing.	a)	.	.
=21	=21	=21	=21	=21	=21	=21
1E-mm	E-:min7	4E-]	_	.	39.807	newline
.	.	2r	.	.	.	.
.	.	8E-	Let	.	.	.
.	.	8E-	me	.	.	.
=22	=22	=22	=22	=22	=22	=22
1E-mm	E-:min7	8G-	show	.	41.759	.
.	.	8G-	you	.	.	.
.	.	8G-	the	.	.	.
.	.	4E-	world	.	.	.
.	.	8E-	in	.	.	.
.	.	8G-	my	.	.	.
.	.	[8E-	eyes.	.	.	.
=23	=23	=23	=23	=23	=23	=23
1E-mm	E-:min7(b13)	2E-]	_	.	43.712	.
.	.	2r	.	.	.	.
=24	=24	=24	=24	=24	=24	=24
1E-mm	E-:min7(b13)	1r	.	.	45.664	.
=25	=25	=25	=25	=25	=25	=25
*>Letter>A	*>Letter>A	*>Letter>A	*>Letter>A	*>Letter>A	*>Letter>A	*>Letter>A
*>Label>Interlude	*>Label>Interlude	*>Label>Interlude	*>Label>Interlude	*>Label>Interlude	*>Label>Interlude	*>Label>Interlude
1E-mm	E-:min7	1r	.	.	47.616	newline
=26	=26	=26	=26	=26	=26	=26
1E-mm	E-:min7	1r	.	.	49.601	.
=27	=27	=27	=27	=27	=27	=27
1E-mm	E-:min7	1r	.	.	51.585	.
=28	=28	=28	=28	=28	=28	=28
1E-mm	E-:min7	1r	.	.	53.57	.
=29	=29	=29	=29	=29	=29	=29
1E-mm	E-:min7	1r	.	.	55.555	newline
=30	=30	=30	=30	=30	=30	=30
1E-mm	E-:min7	1r	.	.	57.51	.
=31	=31	=31	=31	=31	=31	=31
1E-mm	E-:min7	1r	.	.	59.465	.
=32	=32	=32	=32	=32	=32	=32
1E-mm	E-:min7	1r	.	.	61.42	.
=33	=33	=33	=33	=33	=33	=33
*>Letter>B	*>Letter>B	*>Letter>B	*>Letter>B	*>Letter>B	*>Letter>B	*>Letter>B
*>Label>Verse	*>Label>Verse	*>Label>Verse	*>Label>Verse	*>Label>Verse	*>Label>Verse	*>Label>Verse
1E-mm	E-:min7	4.r	.	.	63.375	newline
.	.	8E-	I'll	.	.	.
.	.	8E-	take	.	.	.
.	.	8E-	you	.	.	.
.	.	8E-	to	.	.	.
.	.	8E-	the	.	.	.
=34	=34	=34	=34	=34	=34	=34
1E-mm	E-:min7	4G-	high-	.	65.341	.
.	.	4G-	-est	.	.	.
.	.	4E-	moun-	.	.	.
.	.	4G-	-tain,	.	.	.
=35	=35	=35	=35	=35	=35	=35
1E-mm	E-:min7	4r	.	.	67.308	.
.	.	8G-	To	.	.	.
.	.	8E-	the	.	.	.
.	.	4G-	depths	.	.	.
.	.	8G-	of	.	.	.
.	.	8E-	the	.	.	.
=36	=36	=36	=36	=36	=36	=36
1E-mm	E-:min7	4G-	dee-	.	69.274	.
.	.	4G-	-pest	.	.	.
.	.	4E-	sea;	B	.	.
.	.	4r	.	.	.	.
=37	=37	=37	=37	=37	=37	=37
1E-mm	E-:min7	2r	.	.	71.241	newline
.	.	8r	.	.	.	.
.	.	8E-	And	.	.	.
.	.	8E-	we	.	.	.
.	.	[8G-	won't	.	.	.
=38	=38	=38	=38	=38	=38	=38
1E-mm	E-:min7	8G-]	_	.	73.204	.
.	.	4G-	need	.	.	.
.	.	8G-	a	.	.	.
.	.	4E-	map.	.	.	.
.	.	8E-	be-	.	.	.
.	.	[8G-	-lieve	.	.	.
=39	=39	=39	=39	=39	=39	=39
1E-mm	E-:min7	8G-]	_	.	75.166	.
.	.	4.E-	me.	B	.	.
.	.	2r	.	.	.	.
=40	=40	=40	=40	=40	=40	=40
1E-mm	E-:min7	1r	.	.	77.129	.
=41	=41	=41	=41	=41	=41	=41
1E-mm	E-:min7	2r	.	.	79.092	newline
.	.	8r	.	.	.	.
.	.	8E-	Now	.	.	.
.	.	8E-	let	.	.	.
.	.	8E-	my	.	.	.
=42	=42	=42	=42	=42	=42	=42
1E-mm	E-:min7	8G-	bo-	.	81.046	.
.	.	8G-	-dy	.	.	.
.	.	8G-	do	.	.	.
.	.	8G-	the	.	.	.
.	.	4E-	mov-	(C	.	.
.	.	4G-	-ing;	c)	.	.
=43	=43	=43	=43	=43	=43	=43
1A-mm	A-:min7	2r	.	.	83.001	.
.	.	8r	.	.	.	.
.	.	8E-	And	.	.	.
.	.	8E-	let	.	.	.
.	.	8E-	my	.	.	.
=44	=44	=44	=44	=44	=44	=44
1A-mm	A-:min7	4G-	hands	.	84.956	.
.	.	8G-	do	.	.	.
.	.	8G-	the	.	.	.
.	.	4D-	sooth-	(C	.	.
.	.	[4E-	-ing.	c)	.	.
=45	=45	=45	=45	=45	=45	=45
1E-mm	E-:min7	16E-]	_	.	86.911	newline
.	.	16G-	_	.	.	.
.	.	8E-	_	.	.	.
.	.	2r	.	.	.	.
.	.	8E-	Let	.	.	.
.	.	8E-	me	.	.	.
=46	=46	=46	=46	=46	=46	=46
1E-mm	E-:min7	8G-	show	.	88.895	.
.	.	8G-	you	.	.	.
.	.	8G-	the	.	.	.
.	.	4E-	world	.	.	.
.	.	8E-	in	.	.	.
.	.	8G-	my	.	.	.
.	.	[8E-	eyes.	.	.	.
=47	=47	=47	=47	=47	=47	=47
1E-mm	E-:min7(b13)	2E-]	_	.	90.879	.
.	.	2r	.	.	.	.
=48	=48	=48	=48	=48	=48	=48
1E-mm	E-:min7(b13)	1r	.	.	92.863	.
=49	=49	=49	=49	=49	=49	=49
*>Letter>C	*>Letter>C	*>Letter>C	*>Letter>C	*>Letter>C	*>Letter>C	*>Letter>C
*>Label>Chorus	*>Label>Chorus	*>Label>Chorus	*>Label>Chorus	*>Label>Chorus	*>Label>Chorus	*>Label>Chorus
1Cm	C:min	1r	.	.	94.847	newline
=50	=50	=50	=50	=50	=50	=50
1C-M	C-:maj	1r	.	.	96.807	.
=51	=51	=51	=51	=51	=51	=51
1A-m	A-:min	4r	.	.	98.768	.
.	.	4G-	That's	.	.	.
.	.	4.C-	all	.	.	.
.	.	[8G-	there	.	.	.
=52	=52	=52	=52	=52	=52	=52
1B-M	B-:maj	8G-]	_	.	100.728	.
.	.	4.BB-	is.	.	.	.
.	.	2r	.	.	.	.
=53	=53	=53	=53	=53	=53	=53
1E-m	E-:min	8G-	No-	.	102.688	newline
.	.	4F	-thing	.	.	.
.	.	4BB-	more	.	.	.
.	.	4G-	than	.	.	.
.	.	[8F	you	.	.	.
=54	=54	=54	=54	=54	=54	=54
1A-m	A-:min	8F]	_	.	104.66	.
.	.	4BB-	can	.	.	.
.	.	4G-	feel	.	.	.
.	.	4E-	now.	.	.	.
.	.	[8G-	That's	.	.	.
=55	=55	=55	=55	=55	=55	=55
1B-M	B-:maj	8G-]	_	.	106.631	.
.	.	4E-	all	.	.	.
.	.	4A-	there	.	.	.
.	.	4.E-	is.	.	.	.
=56	=56	=56	=56	=56	=56	=56
*>Letter>A	*>Letter>A	*>Letter>A	*>Letter>A	*>Letter>A	*>Letter>A	*>Letter>A
*>Label>Interlude	*>Label>Interlude	*>Label>Interlude	*>Label>Interlude	*>Label>Interlude	*>Label>Interlude	*>Label>Interlude
1E-mm	E-:min7	1r	.	.	108.603	->newline
=57	=57	=57	=57	=57	=57	=57
1E-mm	E-:min7	1r	.	.	110.562	.
=58	=58	=58	=58	=58	=58	=58
1E-mm	E-:min7	1r	.	.	112.52	.
=59	=59	=59	=59	=59	=59	=59
1E-mm	E-:min7	1r	.	.	114.479	.
=60	=60	=60	=60	=60	=60	=60
1E-mm	E-:min7	1r	.	.	116.438	newline
=61	=61	=61	=61	=61	=61	=61
1E-mm	E-:min7	1r	.	.	118.414	.
=62	=62	=62	=62	=62	=62	=62
1E-mm	E-:min7	1r	.	.	120.389	.
=63	=63	=63	=63	=63	=63	=63
1E-mm	E-:min7	1r	.	.	122.365	.
=64	=64	=64	=64	=64	=64	=64
*>Letter>B	*>Letter>B	*>Letter>B	*>Letter>B	*>Letter>B	*>Letter>B	*>Letter>B
*>Label>Verse	*>Label>Verse	*>Label>Verse	*>Label>Verse	*>Label>Verse	*>Label>Verse	*>Label>Verse
1E-mm	E-:min7	2.r	.	.	124.34	newline
.	.	8E-	Let	.	.	.
.	.	8E-	me	.	.	.
=65	=65	=65	=65	=65	=65	=65
1E-mm	E-:min7	8G-	put	.	126.291	.
.	.	8G-	you	.	.	.
.	.	8G-	on	.	.	.
.	.	8G-	a	.	.	.
.	.	4E-	ship,	D	.	.
.	.	4r	.	.	.	.
=66	=66	=66	=66	=66	=66	=66
1E-mm	E-:min7	2.r	.	.	128.241	.
.	.	8E-	On	.	.	.
.	.	8E-	a	.	.	.
=67	=67	=67	=67	=67	=67	=67
1E-mm	E-:min7	4G-	long	.	130.192	.
.	.	4G-	long	.	.	.
.	.	4E-	trip|	D	.	.
.	.	4r	.	.	.	.
=68	=68	=68	=68	=68	=68	=68
1E-mm	E-:min7	2..r	.	.	132.143	newline
.	.	[8G-	your	.	.	.
=69	=69	=69	=69	=69	=69	=69
1E-mm	E-:min7	8G-]	_	.	134.116	.
.	.	4G-	lips	D	.	.
.	.	4E-	close	.	.	.
.	.	4E-	to	.	.	.
.	.	[8G-	my	.	.	.
=70	=70	=70	=70	=70	=70	=70
1E-mm	E-:min7	8G-]	_	.	136.09	.
.	.	4.E-	lips.	D	.	.
.	.	2r	.	.	.	.
=71	=71	=71	=71	=71	=71	=71
1E-mm	E-:min7	1r	.	.	138.063	.
=72	=72	=72	=72	=72	=72	=72
1E-mm	E-:min7	2.r	.	.	140.036	newline
.	.	8E-	All	.	.	.
.	.	8E-	the	.	.	.
=73	=73	=73	=73	=73	=73	=73
1E-mm	E-:min7	8G-	is-	.	141.997	.
.	.	8G-	-lands	.	.	.
.	.	8G-	in	.	.	.
.	.	8G-	the	.	.	.
.	.	4E-	o-	(E	.	.
.	.	[4G-	-cean.	e)	.	.
=74	=74	=74	=74	=74	=74	=74
1A-Mm	A-:7	4G-]	_	.	143.958	.
.	.	2r	.	.	.	.
.	.	8E-	All	.	.	.
.	.	8E-	the	.	.	.
=75	=75	=75	=75	=75	=75	=75
1A-Mm	A-:7	8G-	heav-	.	145.919	.
.	.	8G-	-ens	.	.	.
.	.	4G-	in	.	.	.
.	.	4D-	mo-	(E	.	.
.	.	[4E-	-tion.	e)	.	.
=76	=76	=76	=76	=76	=76	=76
1E-mm	E-:min7	4E-]	_	.	147.88	newline
.	.	2r	.	.	.	.
.	.	8E-	Let	.	.	.
.	.	8E-	me	.	.	.
=77	=77	=77	=77	=77	=77	=77
1E-mm	E-:min7	8G-	show	.	149.851	.
.	.	8G-	you	.	.	.
.	.	8G-	the	.	.	.
.	.	4E-	world	.	.	.
.	.	8E-	in	.	.	.
.	.	8G-	my	.	.	.
.	.	[8E-	eyes.	.	.	.
=78	=78	=78	=78	=78	=78	=78
1E-mm	E-:min7(b13)	2E-]	_	.	151.822	.
.	.	2r	.	.	.	.
=79	=79	=79	=79	=79	=79	=79
1E-mm	E-:min7(b13)	1r	.	.	153.793	.
=80	=80	=80	=80	=80	=80	=80
*>Letter>C	*>Letter>C	*>Letter>C	*>Letter>C	*>Letter>C	*>Letter>C	*>Letter>C
*>Label>Chorus	*>Label>Chorus	*>Label>Chorus	*>Label>Chorus	*>Label>Chorus	*>Label>Chorus	*>Label>Chorus
1Cm	C:min	1r	.	.	155.764	newline
=81	=81	=81	=81	=81	=81	=81
1C-M	C-:maj	1r	.	.	157.719	.
=82	=82	=82	=82	=82	=82	=82
1A-m	A-:min	4r	.	.	159.674	.
.	.	4G-	That's	.	.	.
.	.	4.C-	all	.	.	.
.	.	[8G-	there	.	.	.
=83	=83	=83	=83	=83	=83	=83
1B-M	B-:maj	8G-]	_	.	161.628	.
.	.	4.BB-	is.	.	.	.
.	.	2r	.	.	.	.
=84	=84	=84	=84	=84	=84	=84
1E-m	E-:min	8G-	No-	.	163.583	newline
.	.	4F	-thing	.	.	.
.	.	4BB-	more	.	.	.
.	.	4G-	than	.	.	.
.	.	[8F	you	.	.	.
=85	=85	=85	=85	=85	=85	=85
1A-m	A-:min	8F]	_	.	165.551	.
.	.	4BB-	can	.	.	.
.	.	4G-	feel	.	.	.
.	.	4E-	now.	.	.	.
.	.	[8G-	That's	.	.	.
=86	=86	=86	=86	=86	=86	=86
1B-M	B-:maj	8G-]	_	.	167.518	.
.	.	4E-	all	.	.	.
.	.	4A-	there	.	.	.
.	.	4.E-	is.	.	.	.
=87	=87	=87	=87	=87	=87	=87
*>Letter>A	*>Letter>A	*>Letter>A	*>Letter>A	*>Letter>A	*>Letter>A	*>Letter>A
*>Label>Interlude	*>Label>Interlude	*>Label>Interlude	*>Label>Interlude	*>Label>Interlude	*>Label>Interlude	*>Label>Interlude
1E-mm	E-:min7	1r	.	.	169.485	->newline
=88	=88	=88	=88	=88	=88	=88
1E-mm	E-:min7	1r	.	.	171.463	.
=89	=89	=89	=89	=89	=89	=89
1A-M	A-:maj	1r	.	.	173.441	.
=90	=90	=90	=90	=90	=90	=90
1A-m	A-:min	1r	.	.	175.419	.
=91	=91	=91	=91	=91	=91	=91
1E-mm	E-:min7	1r	.	.	177.397	newline
=92	=92	=92	=92	=92	=92	=92
1E-mm	E-:min7	1r	.	.	179.361	.
=93	=93	=93	=93	=93	=93	=93
1A-M	A-:maj	1r	.	.	181.325	.
=94	=94	=94	=94	=94	=94	=94
1A-m	A-:min	1r	.	.	183.289	.
=95	=95	=95	=95	=95	=95	=95
*>Letter>B2	*>Letter>B2	*>Letter>B2	*>Letter>B2	*>Letter>B2	*>Letter>B2	*>Letter>B2
*>Label>Outro	*>Label>Outro	*>Label>Outro	*>Label>Outro	*>Label>Outro	*>Label>Outro	*>Label>Outro
1E-mm	E-:min7	2.r	.	.	185.253	newline
.	.	8E-	Let	.	.	.
.	.	8E-	me	.	.	.
=96	=96	=96	=96	=96	=96	=96
1E-mm	E-:min7	8G-	show	.	187.21	.
.	.	8G-	you	.	.	.
.	.	8G-	the	.	.	.
.	.	4E-	world	.	.	.
.	.	8E-	in	.	.	.
.	.	8G-	my	.	.	.
.	.	[8E-	eyes.	.	.	.
=97	=97	=97	=97	=97	=97	=97
1A-M	A-:maj	2E-]	_	.	189.168	.
.	.	2r	.	.	.	.
=98	=98	=98	=98	=98	=98	=98
1A-m	A-:min	1r	.	.	191.126	.
=99	=99	=99	=99	=99	=99	=99
1E-mm	E-:min7	2.r	.	.	193.083	newline
.	.	8E-	Let	.	.	.
.	.	8E-	me	.	.	.
=100	=100	=100	=100	=100	=100	=100
1E-mm	E-:min7	8G-	show	.	195.057	.
.	.	8G-	you	.	.	.
.	.	8G-	the	.	.	.
.	.	4E-	world	.	.	.
.	.	8E-	in	.	.	.
.	.	8G-	my	.	.	.
.	.	[8E-	eyes.	.	.	.
=101	=101	=101	=101	=101	=101	=101
1A-M	A-:maj	2E-]	_	.	197.031	.
.	.	2r	.	.	.	.
=102	=102	=102	=102	=102	=102	=102
1A-m	A-:min	1r	.	.	199.005	.
=103	=103	=103	=103	=103	=103	=103
1E-mm	E-:min7	2.r	.	.	200.98	newline
.	.	8E-	Let	.	.	.
.	.	8E-	me	.	.	.
=104	=104	=104	=104	=104	=104	=104
1E-mm	E-:min7	8G-	show	.	202.939	.
.	.	8G-	you	.	.	.
.	.	8G-	the	.	.	.
.	.	4E-	world	.	.	.
.	.	8E-	in	.	.	.
.	.	4G-	my	.	.	.
=105	=105	=105	=105	=105	=105	=105
1A-M	A-:maj	2E-	eyes.	.	204.899	.
.	.	2r	.	.	.	.
=106	=106	=106	=106	=106	=106	=106
1A-m	A-:min	1r	.	.	206.859	.
=107	=107	=107	=107	=107	=107	=107
1E-mm	E-:min7	2.r	.	.	208.818	newline
.	.	8E-	Let	.	.	.
.	.	8E-	me	.	.	.
=108	=108	=108	=108	=108	=108	=108
1E-mm	E-:min7	8G-	show	.	210.788	.
.	.	8G-	you	.	.	.
.	.	8G-	the	.	.	.
.	.	4E-	world	.	.	.
.	.	8E-	in	.	.	.
.	.	4G-	my	.	.	.
=109	=109	=109	=109	=109	=109	=109
1A-M	A-:maj	2E-	eyes.	.	212.758	.
.	.	2r	.	.	.	.
=110	=110	=110	=110	=110	=110	=110
1A-m	A-:min	1r	.	.	214.728	.
=111	=111	=111	=111	=111	=111	=111
*>Label>>Fadeout	*>Label>>Fadeout	*>Label>>Fadeout	*>Label>>Fadeout	*>Label>>Fadeout	*>Label>>Fadeout	*>Label>>Fadeout
1E-mm	E-:min7	2.r	.	.	216.698	newline
.	.	8E-	Let	.	.	.
.	.	8E-	me	.	.	.
=112	=112	=112	=112	=112	=112	=112
1E-mm	E-:min7	8G-	show	.	218.659	.
.	.	8G-	you	.	.	.
.	.	8G-	the	.	.	.
.	.	4E-	world	.	.	.
.	.	8E-	in	.	.	.
.	.	8G-	my	.	.	.
.	.	[8E-	eyes.	.	.	.
=113	=113	=113	=113	=113	=113	=113
1A-M	A-:maj	2E-]	_	.	220.62	.
.	.	2r	.	.	.	.
=114	=114	=114	=114	=114	=114	=114
1A-m	A-:min	1r	.	.	222.581	.
=115	=115	=115	=115	=115	=115	=115
1E-mm	E-:min7	2.r	.	.	224.543	newline
.	.	8E-	Let	.	.	.
.	.	8E-	me	.	.	.
=116	=116	=116	=116	=116	=116	=116
1E-mm	E-:min7	8G-	show	.	226.502	.
.	.	8G-	you	.	.	.
.	.	8G-	the	.	.	.
.	.	4E-	world	.	.	.
.	.	8E-	in	.	.	.
.	.	[4G-	my	.	.	.
=117	=117	=117	=117	=117	=117	=117
1A-M	A-:maj	8G-]	_	.	228.462	.
.	.	[4.E-	eyes.	.	.	.
.	.	4E-]	_	.	.	.
.	.	4r	.	.	.	.
=118	=118	=118	=118	=118	=118	=118
1A-m	A-:min	1r	.	.	230.421	.
=119	=119	=119	=119	=119	=119	=119
1E-mm	E-:min7	2.r	.	.	232.381	newline
.	.	8E-	Let	.	.	.
.	.	8E-	me	.	.	.
=120	=120	=120	=120	=120	=120	=120
1E-mm	E-:min7	8G-	show	.	233.258	.
.	.	8G-	you	.	.	.
.	.	8G-	the	.	.	.
.	.	4E-	world	.	.	.
.	.	8E-	in	.	.	.
.	.	[4G-	my	.	.	.
=121	=121	=121	=121	=121	=121	=121
1A-M	A-:maj	8G-]	_	.	234.136	.
.	.	[4.E-	eyes.	.	.	.
.	.	4E-]	_	.	.	.
.	.	4r	.	.	.	.
=122	=122	=122	=122	=122	=122	=122
1A-m	A-:min	1r	.	.	235.014	.
1r;	1r	r;	.	.	235.892	.
1r;	1r	r;	.	.	239.856	.
*-	*-	*-	*-	*-	*-	*-
!!!BillboardChartDate: 1990/12/22, 1990/11/24
!!!BillboardPeak: 52, 52
!!!BillboardWeeksOnChart: 10, 10
!!!COC: Depeche Mode
!!!ENC: Nathaniel Condit-Schultz
!!!EST: Awating manual error checking and editing.
!!!OTL: World In My Eyes
!!!RDF**chordsym: original McGill chord annotation + (implied pitch class set, with bass pitch in first position)
!!!RDF**harmony: **recip + pitch class of root + harmonic quality
!!!RDF**leadinstrument: original McGill primary instrumentation annotation
!!!RDF**phrase: newline = linebreak in original McGill transcription
!!!RDF**timestamp: McGill audio timestamp in seconds
!!!RDT: 2017/01/12/
!!!SampleActualRank: 52, 71
!!!SampleID#: 442, 757
!!!SampleTargetRank: 54, 70
!!!MBID: 26f7bb0d-133d-4811-a8bf-0ff930c5a11a